X: 28467
T: Muñeira D'Antón
R: jig
M: 6/8
K: Amajor
e2c dcd|e2c dcd|Bcd efg|~f2e ecd|
e2c cdc|e2c dcd|Bcd efg|1 aec Acd:|2 aec A2a||
|:geg fdf|e c3 ec|Bcd efg|~f2e e2a|
geg fdf|e c3 ec|Bcd efg|1 aec A2 a:|2 aec A3||
|:eae cec|cBc d3|faf dfd|dcd e2c|
eae cec|cBc d2e|agf eae|1 dcB A3:|2 dcB Acd||

